static/img/aws.svg

<svg height="16" viewBox="0 0 26 16" width="27" xmlns="http://www.w3.org/2000/svg"><path d="m7.390625 5.835938c0 .328124.03125.589843.09375.785156.066406.191406.152344.402344.273437.632812.042969.070313.058594.140625.058594.199219 0 .089844-.050781.175781-.160156.265625l-.539062.371094c-.078126.050781-.15625.078125-.222657.078125-.085937 0-.171875-.042969-.257812-.125-.121094-.132813-.222657-.273438-.308594-.414063-.085937-.148437-.171875-.316406-.265625-.515625-.664062.808594-1.503906 1.210938-2.511719 1.210938-.71875 0-1.292969-.210938-1.710937-.632813-.421875-.421875-.632813-.984375-.632813-1.6875 0-.746094.253907-1.351562.777344-1.808594.523437-.460937 1.214844-.6875 2.09375-.6875.292969 0 .589844.027344.90625.070313s.644531.113281.984375.191406v-.640625c0-.667968-.136719-1.132812-.402344-1.40625-.273437-.273437-.734375-.402344-1.394531-.402344-.296875 0-.605469.035157-.921875.113282s-.625.175781-.921875.296875c-.136719.0625-.242187.097656-.300781.117187-.058594.015625-.101563.023438-.136719.023438-.121094 0-.179687-.085938-.179687-.269532v-.433593c0-.140625.015624-.246094.058593-.304688.042969-.0625.121094-.125.242188-.1875.296875-.15625.65625-.289062 1.074219-.394531.421874-.113281.867187-.167969 1.335937-.167969 1.019531 0 1.761719.238281 2.242187.714844.46875.472656.707032 1.195313.707032 2.160156v2.847657zm-3.472656 1.335937c.28125 0 .570312-.050781.878906-.15625s.582031-.300781.8125-.5625c.136719-.167969.242187-.351563.292969-.5625.050781-.210937.085937-.464844.085937-.765625v-.367188c-.25-.0625-.515625-.117187-.789062-.152343-.273438-.035157-.539063-.050781-.804688-.050781-.570312 0-.992187.113281-1.273437.351562s-.417969.570312-.417969 1.011719c0 .410156.101563.71875.316406.929687.203125.21875.503907.324219.898438.324219zm6.867187.953125c-.152344 0-.257812-.027344-.324218-.089844-.070313-.054687-.128907-.175781-.179688-.34375l-2.011719-6.792968c-.050781-.175782-.074219-.292969-.074219-.351563 0-.140625.066407-.222656.203126-.222656h.839843c.160157 0 .273438.027343.332031.089843.070313.050782.121094.175782.171876.34375l1.4375 5.816407 1.332031-5.816407c.042969-.175781.09375-.292968.164062-.34375.066407-.054687.1875-.089843.339844-.089843h.6875c.160156 0 .273437.027343.339844.089843.070312.050782.128906.175782.164062.34375l1.351563 5.886719 1.476562-5.886719c.054688-.175781.113282-.292968.171875-.34375.070313-.054687.179688-.089843.335938-.089843h.792969c.136718 0 .214843.070312.214843.222656 0 .042969-.007812.085937-.015625.140625-.011718.050781-.027344.121094-.0625.21875l-2.058594 6.792969c-.054687.175781-.113281.292969-.179687.34375-.070313.054687-.179687.089843-.328125.089843h-.734375c-.160156 0-.273437-.027343-.339844-.089843-.070312-.0625-.128906-.175781-.164062-.351563l-1.324219-5.667968-1.320312 5.660156c-.042969.175781-.09375.289062-.160157.351562-.070312.0625-.1875.089844-.34375.089844zm10.988282.234375c-.441407 0-.886719-.050781-1.316407-.15625-.425781-.105469-.761719-.222656-.984375-.351563-.136718-.082031-.230468-.167968-.261718-.246093-.035157-.082031-.054688-.167969-.054688-.246094v-.449219c0-.183594.070312-.273437.199219-.273437.050781 0 .101562.007812.152343.027343.050782.015626.128907.050782.214844.085938.289063.132812.605469.238281.941406.308594.339844.070312.675782.105468 1.015626.105468.539062 0 .960937-.097656 1.25-.289062.289062-.195312.445312-.476562.445312-.835938 0-.246093-.078125-.449218-.230469-.613281-.15625-.167969-.445312-.316406-.863281-.457031l-1.242188-.398438c-.625-.199218-1.085937-.5-1.367187-.894531-.28125-.386719-.429687-.820312-.429687-1.277343 0-.367188.078124-.691407.230468-.972657.15625-.28125.359375-.527343.617188-.722656.257812-.203125.546875-.351563.890625-.457031.339843-.105469.699219-.1484378 1.078125-.1484378.1875 0 .382812.0078128.570312.0351558.199219.027344.378906.0625.558594.097657.167969.042969.332031.085937.484375.140625.15625.050781.277344.105468.359375.15625.121094.070312.207031.140625.257812.21875.050782.070312.078126.167968.078126.292968v.410157c0 .1875-.070313.28125-.199219.28125-.066407 0-.179688-.035157-.324219-.105469-.488281-.226562-1.035156-.339844-1.640625-.339844-.488281 0-.871094.078125-1.136719.246094-.265625.164062-.402344.421875-.402344.78125 0 .246094.085938.457031.253907.625.171875.164062.488281.332031.941406.480469l1.214844.398437c.617187.203125 1.0625.484375 1.328125.84375.261718.359375.390625.773438.390625 1.230469 0 .378906-.074219.71875-.222657 1.019531-.152343.296875-.359374.5625-.621093.773438-.265625.21875-.582031.378906-.953125.492187-.382813.125-.785156.183594-1.222656.183594zm0 0" fill="#252f3e"/><g fill="#f90" fill-rule="evenodd"><path d="m23.390625 12.632812c-2.8125 2.136719-6.902344 3.269532-10.417969 3.269532-4.925781 0-9.363281-1.871094-12.714844-4.984375-.2656245-.246094-.027343-.578125.289063-.386719 3.625 2.164062 8.101563 3.472656 12.726563 3.472656 3.121093 0 6.550781-.667968 9.707031-2.039062.472656-.21875.871093.316406.410156.667968zm0 0"/><path d="m24.5625 11.261719c-.359375-.476563-2.378906-.230469-3.292969-.113281-.273437.035156-.316406-.210938-.066406-.398438 1.605469-1.160156 4.25-.824219 4.558594-.4375.308593.394531-.085938 3.113281-1.59375 4.414062-.230469.199219-.453125.09375-.347657-.167968.339844-.871094 1.101563-2.832032.742188-3.296875zm0 0"/></g></svg>

<?xml version="1.0" encoding="UTF-8"?>
<svg xmlns="http://www.w3.org/2000/svg" xmlns:xlink="http://www.w3.org/1999/xlink" width="27px" height="16px" viewBox="0 0 26 16" version="1.1">
<g id="surface1">
<path style=" stroke:none;fill-rule:nonzero;fill:rgb(14.509804%,18.431373%,24.313725%);fill-opacity:1;" d="M 7.390625 5.835938 C 7.390625 6.164062 7.421875 6.425781 7.484375 6.621094 C 7.550781 6.8125 7.636719 7.023438 7.757812 7.253906 C 7.800781 7.324219 7.816406 7.394531 7.816406 7.453125 C 7.816406 7.542969 7.765625 7.628906 7.65625 7.71875 L 7.117188 8.089844 C 7.039062 8.140625 6.960938 8.167969 6.894531 8.167969 C 6.808594 8.167969 6.722656 8.125 6.636719 8.042969 C 6.515625 7.910156 6.414062 7.769531 6.328125 7.628906 C 6.242188 7.480469 6.15625 7.3125 6.0625 7.113281 C 5.398438 7.921875 4.558594 8.324219 3.550781 8.324219 C 2.832031 8.324219 2.257812 8.113281 1.839844 7.691406 C 1.417969 7.269531 1.207031 6.707031 1.207031 6.003906 C 1.207031 5.257812 1.460938 4.652344 1.984375 4.195312 C 2.507812 3.734375 3.199219 3.507812 4.078125 3.507812 C 4.371094 3.507812 4.667969 3.535156 4.984375 3.578125 C 5.300781 3.621094 5.628906 3.691406 5.96875 3.769531 L 5.96875 3.128906 C 5.96875 2.460938 5.832031 1.996094 5.566406 1.722656 C 5.292969 1.449219 4.832031 1.320312 4.171875 1.320312 C 3.875 1.320312 3.566406 1.355469 3.25 1.433594 C 2.933594 1.511719 2.625 1.609375 2.328125 1.730469 C 2.191406 1.792969 2.085938 1.828125 2.027344 1.847656 C 1.96875 1.863281 1.925781 1.871094 1.890625 1.871094 C 1.769531 1.871094 1.710938 1.785156 1.710938 1.601562 L 1.710938 1.167969 C 1.710938 1.027344 1.726562 0.921875 1.769531 0.863281 C 1.8125 0.800781 1.890625 0.738281 2.011719 0.675781 C 2.308594 0.519531 2.667969 0.386719 3.085938 0.28125 C 3.507812 0.167969 3.953125 0.113281 4.421875 0.113281 C 5.441406 0.113281 6.183594 0.351562 6.664062 0.828125 C 7.132812 1.300781 7.371094 2.023438 7.371094 2.988281 L 7.371094 5.835938 Z M 3.917969 7.171875 C 4.199219 7.171875 4.488281 7.121094 4.796875 7.015625 C 5.105469 6.910156 5.378906 6.714844 5.609375 6.453125 C 5.746094 6.285156 5.851562 6.101562 5.902344 5.890625 C 5.953125 5.679688 5.988281 5.425781 5.988281 5.125 L 5.988281 4.757812 C 5.738281 4.695312 5.472656 4.640625 5.199219 4.605469 C 4.925781 4.570312 4.660156 4.554688 4.394531 4.554688 C 3.824219 4.554688 3.402344 4.667969 3.121094 4.90625 C 2.839844 5.144531 2.703125 5.476562 2.703125 5.917969 C 2.703125 6.328125 2.804688 6.636719 3.019531 6.847656 C 3.222656 7.066406 3.523438 7.171875 3.917969 7.171875 Z M 10.785156 8.125 C 10.632812 8.125 10.527344 8.097656 10.460938 8.035156 C 10.390625 7.980469 10.332031 7.859375 10.28125 7.691406 L 8.269531 0.898438 C 8.21875 0.722656 8.195312 0.605469 8.195312 0.546875 C 8.195312 0.40625 8.261719 0.324219 8.398438 0.324219 L 9.238281 0.324219 C 9.398438 0.324219 9.511719 0.351562 9.570312 0.414062 C 9.640625 0.464844 9.691406 0.589844 9.742188 0.757812 L 11.179688 6.574219 L 12.511719 0.757812 C 12.554688 0.582031 12.605469 0.464844 12.675781 0.414062 C 12.742188 0.359375 12.863281 0.324219 13.015625 0.324219 L 13.703125 0.324219 C 13.863281 0.324219 13.976562 0.351562 14.042969 0.414062 C 14.113281 0.464844 14.171875 0.589844 14.207031 0.757812 L 15.558594 6.644531 L 17.035156 0.757812 C 17.089844 0.582031 17.148438 0.464844 17.207031 0.414062 C 17.277344 0.359375 17.386719 0.324219 17.542969 0.324219 L 18.335938 0.324219 C 18.472656 0.324219 18.550781 0.394531 18.550781 0.546875 C 18.550781 0.589844 18.542969 0.632812 18.535156 0.6875 C 18.523438 0.738281 18.507812 0.808594 18.472656 0.90625 L 16.414062 7.699219 C 16.359375 7.875 16.300781 7.992188 16.234375 8.042969 C 16.164062 8.097656 16.054688 8.132812 15.90625 8.132812 L 15.171875 8.132812 C 15.011719 8.132812 14.898438 8.105469 14.832031 8.042969 C 14.761719 7.980469 14.703125 7.867188 14.667969 7.691406 L 13.34375 2.023438 L 12.023438 7.683594 C 11.980469 7.859375 11.929688 7.972656 11.863281 8.035156 C 11.792969 8.097656 11.675781 8.125 11.519531 8.125 Z M 21.773438 8.359375 C 21.332031 8.359375 20.886719 8.308594 20.457031 8.203125 C 20.03125 8.097656 19.695312 7.980469 19.472656 7.851562 C 19.335938 7.769531 19.242188 7.683594 19.210938 7.605469 C 19.175781 7.523438 19.15625 7.4375 19.15625 7.359375 L 19.15625 6.910156 C 19.15625 6.726562 19.226562 6.636719 19.355469 6.636719 C 19.40625 6.636719 19.457031 6.644531 19.507812 6.664062 C 19.558594 6.679688 19.636719 6.714844 19.722656 6.75 C 20.011719 6.882812 20.328125 6.988281 20.664062 7.058594 C 21.003906 7.128906 21.339844 7.164062 21.679688 7.164062 C 22.21875 7.164062 22.640625 7.066406 22.929688 6.875 C 23.21875 6.679688 23.375 6.398438 23.375 6.039062 C 23.375 5.792969 23.296875 5.589844 23.144531 5.425781 C 22.988281 5.257812 22.699219 5.109375 22.28125 4.96875 L 21.039062 4.570312 C 20.414062 4.371094 19.953125 4.070312 19.671875 3.675781 C 19.390625 3.289062 19.242188 2.855469 19.242188 2.398438 C 19.242188 2.03125 19.320312 1.707031 19.472656 1.425781 C 19.628906 1.144531 19.832031 0.898438 20.089844 0.703125 C 20.347656 0.5 20.636719 0.351562 20.980469 0.246094 C 21.320312 0.140625 21.679688 0.0976562 22.058594 0.0976562 C 22.246094 0.0976562 22.441406 0.105469 22.628906 0.132812 C 22.828125 0.160156 23.007812 0.195312 23.1875 0.230469 C 23.355469 0.273438 23.519531 0.316406 23.671875 0.371094 C 23.828125 0.421875 23.949219 0.476562 24.03125 0.527344 C 24.152344 0.597656 24.238281 0.667969 24.289062 0.746094 C 24.339844 0.816406 24.367188 0.914062 24.367188 1.039062 L 24.367188 1.449219 C 24.367188 1.636719 24.296875 1.730469 24.167969 1.730469 C 24.101562 1.730469 23.988281 1.695312 23.84375 1.625 C 23.355469 1.398438 22.808594 1.285156 22.203125 1.285156 C 21.714844 1.285156 21.332031 1.363281 21.066406 1.53125 C 20.800781 1.695312 20.664062 1.953125 20.664062 2.3125 C 20.664062 2.558594 20.75 2.769531 20.917969 2.9375 C 21.089844 3.101562 21.40625 3.269531 21.859375 3.417969 L 23.074219 3.816406 C 23.691406 4.019531 24.136719 4.300781 24.402344 4.660156 C 24.664062 5.019531 24.792969 5.433594 24.792969 5.890625 C 24.792969 6.269531 24.71875 6.609375 24.570312 6.910156 C 24.417969 7.207031 24.210938 7.472656 23.949219 7.683594 C 23.683594 7.902344 23.367188 8.0625 22.996094 8.175781 C 22.613281 8.300781 22.210938 8.359375 21.773438 8.359375 Z M 21.773438 8.359375 "/>
<path style=" stroke:none;fill-rule:evenodd;fill:rgb(100%,60%,0%);fill-opacity:1;" d="M 23.390625 12.632812 C 20.578125 14.769531 16.488281 15.902344 12.972656 15.902344 C 8.046875 15.902344 3.609375 14.03125 0.257812 10.917969 C -0.0078125 10.671875 0.230469 10.339844 0.546875 10.53125 C 4.171875 12.695312 8.648438 14.003906 13.273438 14.003906 C 16.394531 14.003906 19.824219 13.335938 22.980469 11.964844 C 23.453125 11.746094 23.851562 12.28125 23.390625 12.632812 Z M 23.390625 12.632812 "/>
<path style=" stroke:none;fill-rule:evenodd;fill:rgb(100%,60%,0%);fill-opacity:1;" d="M 24.5625 11.261719 C 24.203125 10.785156 22.183594 11.03125 21.269531 11.148438 C 20.996094 11.183594 20.953125 10.9375 21.203125 10.75 C 22.808594 9.589844 25.453125 9.925781 25.761719 10.3125 C 26.070312 10.707031 25.675781 13.425781 24.167969 14.726562 C 23.9375 14.925781 23.714844 14.820312 23.820312 14.558594 C 24.160156 13.6875 24.921875 11.726562 24.5625 11.261719 Z M 24.5625 11.261719 "/>
</g>
</svg>
